X:1
T:The Eavesdropper, pt.1
R:jig
D:Paddy Keenan: Port an Phiobaire
D:Dolores Keane & John Faulkner: Broken Hearted I'll Wander
Z:id:hn-jig-150
M:6/8
L:1/8
K:G
DBB BAG|Bde dBG|ceg dBG|BAG AGE|
DBB BAG|Bde dBG|ceg dBA|BGF G2D|
~G3 BAG|~B3 dBG|cBc dBG|~A3 BGD|
G2B BAG|Bde dBG|ceg dBA|BGF GBd|]
<abc>
